X: 1
T: Stag's Lodge
R: polka
M: 2/4
L: 1/8
K: Emin
"Em"eB/B/ GB|FB EB|"Am"c>B AG|"D"F/E/D EF|
"Em"eB/B/ GB|FB EB|"C"c/B/A "D"dc|1 "G"BG G2:|2 "Em"Be e2||
"Em"B>e eg|e/f/g fd|"C"cG Gc|"D"dA Ac|
"Em"B>e eg|e/f/g fd|"Am"c/d/e ge|"Bm"d/e/f af|
"Em"b>B Bg|e/f/g fd|"C"cG Gc|"D"dA Ac|
"Em"B>e eg|e/f/g fd|"Am"ce ag|"Bm"f/e/d ef||

